icons/octagon-16.svg

<?xml version="1.0" encoding="UTF-8"?><svg id="icons" xmlns="http://www.w3.org/2000/svg" viewBox="0 0 16 16"><path d="m11.60999,0h-6.21997L1,4.39001v6.21997l4.39001,4.39001h6.21997l4.39001-4.39001v-6.21997L11.60999,0Zm3.39001,10.19l-3.81,3.81h-5.38l-3.81-3.81v-5.38l3.81-3.81h5.38l3.81,3.81v5.38Z" style="stroke-width:0px;"/><rect width="16" height="16" style="fill:none; stroke-width:0px;"/></svg>

<svg xmlns="http://www.w3.org/2000/svg" viewBox="0 0 16 16"><path d="M11.61 0H5.39L1 4.39v6.22L5.39 15h6.22L16 10.61V4.39L11.61 0zM15 10.19L11.19 14H5.81L2 10.19V4.81L5.81 1h5.38L15 4.81v5.38z" stroke-width="0"/><path fill="none" stroke-width="0" d="M0 0h16v16H0z"/></svg>
